Newaita-dark/actions/32/window-new.svg

<?xml version="1.0" encoding="UTF-8"?>
<svg xmlns="http://www.w3.org/2000/svg" xmlns:xlink="http://www.w3.org/1999/xlink" width="32pt" height="32pt" viewBox="0 0 32 32" version="1.1">
<defs>
<filter id="alpha" filterUnits="objectBoundingBox" x="0%" y="0%" width="100%" height="100%">
  <feColorMatrix type="matrix" in="SourceGraphic" values="0 0 0 0 1 0 0 0 0 1 0 0 0 0 1 0 0 0 1 0"/>
</filter>
<mask id="mask0">
  <g filter="url(#alpha)">
<rect x="0" y="0" width="32" height="32" style="fill:rgb(0%,0%,0%);fill-opacity:0.988235;stroke:none;"/>
  </g>
</mask>
<clipPath id="clip1">
  <rect x="0" y="0" width="32" height="32"/>
</clipPath>
<g id="surface5" clip-path="url(#clip1)">
<path style=" stroke:none;fill-rule:nonzero;fill:rgb(74.117649%,74.117649%,74.117649%);fill-opacity:1;" d="M 1.324219 8.1875 L 1.324219 28.035156 C 1.324219 29.5 2.503906 30.679688 3.96875 30.679688 L 27.785156 30.679688 C 29.25 30.679688 30.429688 29.5 30.429688 28.035156 L 30.429688 8.1875 Z M 3.308594 10.171875 L 28.445312 10.171875 L 28.445312 27.371094 C 28.445312 28.105469 27.855469 28.695312 27.121094 28.695312 L 4.628906 28.695312 C 3.898438 28.695312 3.308594 28.105469 3.308594 27.371094 Z M 3.308594 10.171875 "/>
</g>
<mask id="mask1">
  <g filter="url(#alpha)">
<rect x="0" y="0" width="32" height="32" style="fill:rgb(0%,0%,0%);fill-opacity:0.988235;stroke:none;"/>
  </g>
</mask>
<clipPath id="clip2">
  <rect x="0" y="0" width="32" height="32"/>
</clipPath>
<g id="surface8" clip-path="url(#clip2)">
<path style=" stroke:none;fill-rule:nonzero;fill:rgb(74.117649%,74.117649%,74.117649%);fill-opacity:1;" d="M 3.96875 1.574219 C 2.503906 1.574219 1.324219 2.753906 1.324219 4.21875 L 1.324219 8.1875 L 3.308594 8.1875 L 3.308594 4.878906 C 3.308594 4.148438 3.898438 3.558594 4.628906 3.558594 L 27.121094 3.558594 C 27.855469 3.558594 28.445312 4.148438 28.445312 4.878906 L 28.445312 8.1875 L 30.429688 8.1875 L 30.429688 4.21875 C 30.429688 2.753906 29.25 1.574219 27.785156 1.574219 Z M 3.96875 1.574219 "/>
</g>
</defs>
<g id="surface1">
<use xlink:href="#surface5" mask="url(#mask0)"/>
<use xlink:href="#surface8" mask="url(#mask1)"/>
<path style=" stroke:none;fill-rule:nonzero;fill:rgb(14.901961%,65.098041%,60.392159%);fill-opacity:1;" d="M 16.867188 15.132812 L 16.867188 23.734375 C 16.867188 24.28125 16.460938 24.726562 15.960938 24.726562 L 15.792969 24.726562 C 15.289062 24.726562 14.882812 24.28125 14.882812 23.734375 L 14.882812 15.132812 C 14.882812 14.585938 15.289062 14.140625 15.792969 14.140625 L 15.960938 14.140625 C 16.460938 14.140625 16.867188 14.585938 16.867188 15.132812 Z M 16.867188 15.132812 "/>
<path style=" stroke:none;fill-rule:nonzero;fill:rgb(14.901961%,65.098041%,60.392159%);fill-opacity:1;" d="M 11.578125 18.441406 L 20.175781 18.441406 C 20.722656 18.441406 21.167969 18.847656 21.167969 19.347656 L 21.167969 19.519531 C 21.167969 20.019531 20.722656 20.425781 20.175781 20.425781 L 11.578125 20.425781 C 11.027344 20.425781 10.585938 20.019531 10.585938 19.519531 L 10.585938 19.347656 C 10.585938 18.847656 11.027344 18.441406 11.578125 18.441406 Z M 11.578125 18.441406 "/>
</g>
</svg>

<svg xmlns="http://www.w3.org/2000/svg" xmlns:xlink="http://www.w3.org/1999/xlink" width="32pt" height="32pt" viewBox="0 0 32 32"><defs><filter id="a" filterUnits="objectBoundingBox" x="0%" y="0%" width="100%" height="100%"><feColorMatrix in="SourceGraphic" values="0 0 0 0 1 0 0 0 0 1 0 0 0 0 1 0 0 0 1 0"/></filter><mask id="e"><path fill-opacity=".988" d="M0 0h32v32H0z" filter="url(#a)"/></mask><clipPath id="b"><path d="M0 0h32v32H0z"/></clipPath><g id="d" clip-path="url(#b)"><path d="M1.324 8.188v19.847A2.639 2.639 0 0 0 3.97 30.68h23.816a2.639 2.639 0 0 0 2.645-2.645V8.187zm1.985 1.984h25.136v17.2a1.32 1.32 0 0 1-1.324 1.323H4.63c-.73 0-1.32-.59-1.32-1.324zm0 0" fill="#bdbdbd"/></g><mask id="g"><path fill-opacity=".988" d="M0 0h32v32H0z" filter="url(#a)"/></mask><clipPath id="c"><path d="M0 0h32v32H0z"/></clipPath><g id="f" clip-path="url(#c)"><path d="M3.969 1.574A2.639 2.639 0 0 0 1.324 4.22v3.968H3.31V4.88c0-.73.59-1.32 1.32-1.32H27.12c.734 0 1.324.59 1.324 1.32v3.309h1.985v-3.97a2.639 2.639 0 0 0-2.645-2.644zm0 0" fill="#bdbdbd"/></g></defs><use xlink:href="#d" mask="url(#e)"/><use xlink:href="#f" mask="url(#g)"/><path d="M16.867 15.133v8.601c0 .547-.406.993-.906.993h-.168c-.504 0-.91-.446-.91-.993v-8.601c0-.547.406-.992.91-.992h.168c.5 0 .906.445.906.992zm0 0" fill="#26a69a"/><path d="M11.578 18.441h8.598c.547 0 .992.407.992.907v.172c0 .5-.445.906-.992.906h-8.598c-.55 0-.992-.406-.992-.906v-.172c0-.5.441-.907.992-.907zm0 0" fill="#26a69a"/></svg>
